Sources/FrostedUI/Resources/Icons.xcassets/questionCircle20.imageset/question-circle-20.svg

<svg width="20" height="20" viewBox="0 0 20 20" fill="none" xmlns="http://www.w3.org/2000/svg" data-fui-icon="true">
  <path
    d="M10 1C14.9706 1 19 5.02944 19 10C19 14.9706 14.9706 19 10 19C5.02944 19 1 14.9706 1 10C1 5.02944 5.02944 1 10 1ZM10 2.5C5.85786 2.5 2.5 5.85786 2.5 10C2.5 14.1421 5.85786 17.5 10 17.5C14.1421 17.5 17.5 14.1421 17.5 10C17.5 5.85786 14.1421 2.5 10 2.5ZM10 14C10.5523 14 11 14.4477 11 15C11 15.5523 10.5523 16 10 16C9.44771 16 9 15.5523 9 15C9 14.4477 9.44771 14 10 14ZM10 5C11.6569 5 13 6.34315 13 8C13 8.95689 12.5511 9.80933 11.8555 10.3574C11.5318 10.6125 11.2424 10.8569 11.0332 11.1143C10.8275 11.3674 10.75 11.5716 10.75 11.75V12.25C10.75 12.6642 10.4142 13 10 13C9.58579 13 9.25 12.6642 9.25 12.25V11.75C9.25 11.1001 9.54306 10.5702 9.87012 10.168C10.1937 9.76995 10.5998 9.43729 10.9268 9.17969C11.277 8.90378 11.5 8.47788 11.5 8C11.5 7.17157 10.8284 6.5 10 6.5C9.17157 6.5 8.5 7.17157 8.5 8V8.25C8.5 8.66421 8.16421 9 7.75 9C7.33579 9 7 8.66421 7 8.25V8C7 6.34315 8.34315 5 10 5Z"
    fill="currentColor"
  />
</svg>

<svg xmlns="http://www.w3.org/2000/svg" width="20" height="20" fill="none" data-fui-icon="true" viewBox="0 0 20 20"><path fill="currentColor" d="M10 1a9 9 0 1 1 0 18 9 9 0 0 1 0-18m0 1.5a7.5 7.5 0 1 0 0 15 7.5 7.5 0 0 0 0-15M10 14a1 1 0 1 1 0 2 1 1 0 0 1 0-2m0-9a3 3 0 0 1 1.855 5.357c-.323.256-.613.5-.822.757-.205.253-.283.458-.283.636v.5a.75.75 0 0 1-1.5 0v-.5c0-.65.293-1.18.62-1.582.324-.398.73-.73 1.057-.988A1.5 1.5 0 1 0 8.5 8v.25a.75.75 0 0 1-1.5 0V8a3 3 0 0 1 3-3"/></svg>
